docs/assets/images/calc-svg/category-stage.svg

<svg width="126" height="90" viewBox="0 0 126 90" fill="none" xmlns="http://www.w3.org/2000/svg">
<path d="M125 17.7117L55.0746 1L38.3138 3.93584L38.693 13.9478L20.7945 17.2601L21.2495 27.9495L1 32.4662L2.06178 43.3062L59.7768 89L85.1835 75.6005L85.4869 61.2977L105.736 51.7374L106.798 37.9615L123.787 31.1112L125 17.7117Z" fill="#4F4F4F" fill-opacity="0.2"/>
<path d="M125 17.7117L55.0746 1L38.3138 3.93584M125 17.7117L123.787 31.1112L106.798 37.9615M125 17.7117L107.177 23.5081M38.3138 3.93584L38.693 13.9478M38.3138 3.93584L107.177 23.5081M38.693 13.9478L20.7945 17.2601M38.693 13.9478L106.04 37.9615M20.7945 17.2601L21.2495 27.9495M20.7945 17.2601L85.5627 46.4679M21.2495 27.9495L0.999998 32.4662M21.2495 27.9495L84.8043 61.2977M0.999998 32.4662L2.06177 43.3062L59.7768 89M0.999998 32.4662L59.7009 73.568M59.7768 89L85.1835 75.6005L85.4868 61.2977M59.7768 89L59.7009 73.568M85.4868 61.2977L105.736 51.7374L106.798 37.9615M85.4868 61.2977H84.8043M85.4868 61.2977L59.7009 73.568M106.798 37.9615H106.04M106.798 37.9615C106.555 38.2024 92.5401 43.7328 85.5627 46.4679M107.177 23.5081L106.04 37.9615M85.5627 46.4679L84.8043 61.2977" stroke="#4F4F4F" stroke-opacity="0.6"/>
</svg>

<svg width="126" height="90" fill="none" xmlns="http://www.w3.org/2000/svg"><path d="M125 17.712L55.075 1 38.314 3.936l.379 10.012-17.898 3.312.454 10.69L1 32.465l1.062 10.84L59.777 89l25.406-13.4.304-14.302 20.249-9.56 1.062-13.776 16.989-6.85 1.213-13.4z" fill="#4F4F4F" fill-opacity=".2"/><path d="M125 17.712L55.075 1 38.314 3.936M125 17.712l-1.213 13.4-16.989 6.85M125 17.712l-17.823 5.796M38.314 3.936l.379 10.012m-.38-10.012l68.864 19.572m-68.484-9.56L20.795 17.26m17.898-3.312l67.347 24.014M20.794 17.26l.456 10.69m-.456-10.69l64.769 29.208M21.249 27.949L1 32.467m20.25-4.517l63.554 33.349M1 32.466l1.062 10.84L59.777 89M1 32.466l58.7 41.102M59.778 89l25.406-13.4.304-14.302M59.777 89L59.7 73.568m25.786-12.27l20.249-9.56 1.062-13.776m-21.31 23.335h-.683m.683 0L59.7 73.568m47.097-35.606h-.758m.758 0c-.243.24-14.258 5.77-21.235 8.506m21.614-22.96l-1.137 14.454m-20.477 8.506l-.759 14.83" stroke="#4F4F4F" stroke-opacity=".6"/></svg>
